rospo-icon-theme-classic-common/24x24/apps/tresorit.svg

<svg height="24" width="24" xmlns="http://www.w3.org/2000/svg"><path d="m12.053849 2.0011749a2.282762 2.2739121 0 0 0 -1.19548.303345l-6.7168881 3.8629356a2.282762 2.2739121 0 0 0 -1.141481 1.9694672v7.7263713a2.282762 2.2739121 0 0 0 1.141381 1.969267l6.7168881 3.863136a2.282762 2.2739121 0 0 0 2.282762 0l6.716888-3.863136a2.282762 2.2739121 0 0 0 1.141481-1.969467v-7.7263713a2.282762 2.2739121 0 0 0 -1.141481-1.9694672l-6.716888-3.8629356a2.282762 2.2739121 0 0 0 -1.087482-.3033449z" fill="#4f4f4f"/><path d="m11.772315 2.01322a2.282762 2.2739121 0 0 0 -.03614.00488 2.282762 2.2739121 0 0 1  .0459-.00488 2.282762 2.2739121 0 0 0 -.0098 0zm-.208005.030273a2.282762 2.2739121 0 0 0 -.08105.018554 2.282762 2.2739121 0 0 1  .08105-.018554zm-.218746.05371a2.282762 2.2739121 0 0 0 -.07422.024414 2.282762 2.2739121 0 0 1  .07422-.024414zm-.221676.078124a2.282762 2.2739121 0 0 0 -.08398.038085 2.282762 2.2739121 0 0 1  .08398-.038085zm-.198239.092772a2.282762 2.2739121 0 0 0 -.06738.036132 2.282762 2.2739121 0 0 1  .06738-.036132zm-6.7840665 3.8993485a2.282762 2.2739121 0 0 0 -.5331942.424798 2.282762 2.2739121 0 0 1  .5331942-.424798zm-.5331942.424798a2.282762 2.2739121 0 0 0 -.6015525 1.3984142 2.282762 2.2739121 0 0 1  .6015525-1.3984142zm-.6015525 1.3984142a2.282762 2.2739121 0 0 0 -.00684.146482v7.7264333a2.282762 2.2739121 0 0 0 1.1415826 1.968717l6.7166855 3.863217a2.282762 2.2739121 0 0 0 1.141582.30273v-7.999867a2.282762 2.2739121 0 0 1 -1.1415779-.302729l-6.7166855-3.8632175a2.282762 2.2739121 0 0 1 -1.1347467-1.8417658z" fill="#fff" opacity=".1"/><path d="m12.053349 2.0015249a2.282762 2.2739121 0 0 0 -1.19498.302695l-6.7168881 3.8632356a2.282762 2.2739121 0 0 0 -1.141481 1.9694672v.4999917a2.282762 2.2739121 0 0 1 1.141581-1.9694672l6.7168881-3.8632356a2.282762 2.2739121 0 0 1 1.19528-.30273 2.282762 2.2739121 0 0 1 1.087882.30273l6.716888 3.8632356a2.282762 2.2739121 0 0 1 1.141481 1.9694672v-.4999917a2.282762 2.2739121 0 0 0 -1.141481-1.9694672l-6.716888-3.8632356a2.282762 2.2739121 0 0 0 -1.087982-.302695z" fill="#fff" opacity=".1"/><path d="m2.9999999 15.863294v.499992a2.282762 2.2739121 0 0 0 1.141581 1.968717l6.7168881 3.863236a2.282762 2.2739121 0 0 0 2.283162 0l6.716888-3.863436a2.282762 2.2739121 0 0 0 1.141481-1.968967v-.499992a2.282762 2.2739121 0 0 1 -1.141581 1.968717l-6.716888 3.863236a2.282762 2.2739121 0 0 1 -2.283162 0l-6.7168881-3.863436a2.282762 2.2739121 0 0 1 -1.141481-1.968967z" opacity=".2"/><path d="m12.05356 2.000525v.0009749a2.282762 2.2739121 0 0 0 -1.195292.3027309l-6.7166855 3.8632167a2.282762 2.2739121 0 0 0 -1.1347467 1.8232122 2.282762 2.2739121 0 0 0 1.1347467 1.8417658l6.7166855 3.8632175a2.282762 2.2739121 0 0 0 2.283164 0l6.716686-3.8632175a2.282762 2.2739121 0 0 0 1.134746-1.8241881 2.282762 2.2739121 0 0 0 -1.134746-1.8407899l-6.716686-3.8632167a2.282762 2.2739121 0 0 0 -1.087872-.3037058z" fill="#fff" opacity=".2"/><path d="m15.051557 3.9028135-12.0515571 6.9578915v5.502838a2.282762 2.2739121 0 0 0  .016601.260738l17.0299901-9.8318674a2.282762 2.2739121 0 0 0 -.188473-.1249979z" opacity=".2"/><path d="m15.051557 3.4028453-12.0515571 6.9578917v5.502838a2.282762 2.2739121 0 0 0  .016601.260738l17.0299901-9.8318675a2.282762 2.2739121 0 0 0 -.188473-.124998z" fill="#00cbec"/><path d="m4.0351389 9.7630911-1.035139.5976459v5.502838a2.282762 2.2739121 0 0 0  .015625.252926 2.282762 2.2739121 0 0 0  .000975.0078l6.020409-3.475516-4.8954264-2.8163595a2.282762 2.2739121 0 0 1 -.1064436-.0693344z" fill="#00a7c2"/></svg>

<svg xmlns="http://www.w3.org/2000/svg" width="24" height="24" version="1">
 <path style="fill:#4f4f4f" d="m 12.053849,2.0011749 a 2.282762,2.2739121 0 0 0 -1.19548,0.303345 L 4.1414809,6.1674555 a 2.282762,2.2739121 0 0 0 -1.141481,1.9694672 l 0,7.7263713 a 2.282762,2.2739121 0 0 0 1.141381,1.969267 l 6.7168881,3.863136 a 2.282762,2.2739121 0 0 0 2.282762,0 l 6.716888,-3.863136 A 2.282762,2.2739121 0 0 0 20.9994,15.863094 l 0,-7.7263713 A 2.282762,2.2739121 0 0 0 19.857919,6.1672555 L 13.141031,2.3043199 A 2.282762,2.2739121 0 0 0 12.053549,2.000975 Z"/>
 <path style="opacity:0.1;fill:#ffffff" d="m 11.772315,2.01322 a 2.282762,2.2739121 0 0 0 -0.03614,0.00488 2.282762,2.2739121 0 0 1 0.0459,-0.00488 2.282762,2.2739121 0 0 0 -0.0098,0 z M 11.56431,2.043493 a 2.282762,2.2739121 0 0 0 -0.08105,0.018554 2.282762,2.2739121 0 0 1 0.08105,-0.018554 z m -0.218746,0.05371 a 2.282762,2.2739121 0 0 0 -0.07422,0.024414 2.282762,2.2739121 0 0 1 0.07422,-0.024414 z m -0.221676,0.078124 a 2.282762,2.2739121 0 0 0 -0.08398,0.038085 2.282762,2.2739121 0 0 1 0.08398,-0.038085 z m -0.198239,0.092772 a 2.282762,2.2739121 0 0 0 -0.06738,0.036132 2.282762,2.2739121 0 0 1 0.06738,-0.036132 z M 4.1415825,6.1674475 A 2.282762,2.2739121 0 0 0 3.6083883,6.5922455 2.282762,2.2739121 0 0 1 4.1415825,6.1674475 Z M 3.6083883,6.5922455 A 2.282762,2.2739121 0 0 0 3.0068358,7.9906597 2.282762,2.2739121 0 0 1 3.6083883,6.5922455 Z M 3.0068358,7.9906597 a 2.282762,2.2739121 0 0 0 -0.00684,0.146482 l 0,7.7264333 a 2.282762,2.2739121 0 0 0 1.1415826,1.968717 l 6.7166855,3.863217 a 2.282762,2.2739121 0 0 0 1.141582,0.30273 l 0,-7.999867 A 2.282762,2.2739121 0 0 1 10.858268,13.695643 L 4.1415825,9.8324255 A 2.282762,2.2739121 0 0 1 3.0068358,7.9906597 Z"/>
 <path style="opacity:0.1;fill:#ffffff" d="m 12.053349,2.0015249 a 2.282762,2.2739121 0 0 0 -1.19498,0.302695 L 4.1414809,6.1674555 a 2.282762,2.2739121 0 0 0 -1.141481,1.9694672 l 0,0.4999917 A 2.282762,2.2739121 0 0 1 4.1415809,6.6674472 L 10.858469,2.8042116 a 2.282762,2.2739121 0 0 1 1.19528,-0.30273 2.282762,2.2739121 0 0 1 1.087882,0.30273 l 6.716888,3.8632356 A 2.282762,2.2739121 0 0 1 21,8.6369144 L 21,8.1369227 A 2.282762,2.2739121 0 0 0 19.858519,6.1674555 L 13.141631,2.3042199 a 2.282762,2.2739121 0 0 0 -1.087982,-0.302695 z"/>
 <path style="opacity:0.2" d="m 2.9999999,15.863294 0,0.499992 a 2.282762,2.2739121 0 0 0 1.141581,1.968717 l 6.7168881,3.863236 a 2.282762,2.2739121 0 0 0 2.283162,0 l 6.716888,-3.863436 A 2.282762,2.2739121 0 0 0 21,16.362836 l 0,-0.499992 a 2.282762,2.2739121 0 0 1 -1.141581,1.968717 l -6.716888,3.863236 a 2.282762,2.2739121 0 0 1 -2.283162,0 L 4.1414809,17.831361 a 2.282762,2.2739121 0 0 1 -1.141481,-1.968967 z"/>
 <path style="opacity:0.2;fill:#ffffff" d="m 12.05356,2.000525 0,9.749e-4 A 2.282762,2.2739121 0 0 0 10.858268,2.3042308 L 4.1415825,6.1674475 A 2.282762,2.2739121 0 0 0 3.0068358,7.9906597 2.282762,2.2739121 0 0 0 4.1415825,9.8324255 l 6.7166855,3.8632175 a 2.282762,2.2739121 0 0 0 2.283164,0 L 19.858118,9.8324255 A 2.282762,2.2739121 0 0 0 20.992864,8.0082374 2.282762,2.2739121 0 0 0 19.858118,6.1674475 L 13.141432,2.3042308 A 2.282762,2.2739121 0 0 0 12.05356,2.000525 Z"/>
 <path style="opacity:0.2" d="m 15.051557,3.9028135 -12.0515571,6.9578915 0,5.502838 a 2.282762,2.2739121 0 0 0 0.016601,0.260738 L 20.046591,6.7924136 A 2.282762,2.2739121 0 0 0 19.858118,6.6674157 L 15.051557,3.9028135 Z"/>
 <path style="fill:#00cbec" d="m 15.051557,3.4028453 -12.0515571,6.9578917 0,5.502838 a 2.282762,2.2739121 0 0 0 0.016601,0.260738 L 20.046591,6.2924455 A 2.282762,2.2739121 0 0 0 19.858118,6.1674475 L 15.051557,3.4028453 Z"/>
 <path style="fill:#00a7c2" d="m 4.0351389,9.7630911 -1.035139,0.5976459 0,5.502838 a 2.282762,2.2739121 0 0 0 0.015625,0.252926 2.282762,2.2739121 0 0 0 9.75e-4,0.0078 L 9.0370089,12.648785 4.1415825,9.8324255 A 2.282762,2.2739121 0 0 1 4.0351389,9.7630911 Z"/>
</svg>
